X:441
T:George's Maggot. (p).1701.PLFD.441
M:6/4
L:1/4
Q:3/4=100
S:Playford, Dancing Master,11th Ed.,1701.
O:England
Z:Chris Partington.
K:Bb
d|g>a^fg2d|gaba2a|bfdgdB|B>AGG2d|
g>a^fg2d|gaba2a|b=e(f/d/)^c>=BA|d=e^cd2:|
|:f|=e>def2f|dfab2b|bfdg2g|=e>def2f|
fgabfd|efgfdB|defgde|d>cBB2(d/e/)|
f>e(d/c/)B>cd|e>f (e/d/)c>de|dgfgdB|B>AGG2:|
